X: 15479
T: Glenconwell, The
R: hornpipe
M: 4/4
K: Dmajor
|:FG|A_A =AF dc dA|f=f ^fA dc dB|A_A =AF dc dF|AG FE DF AF|
A_A =AF dc dA|f=f ^fA dc dB|Ad cB (3ABA (3GFE|(3DFA (3dAF D2:|
|:FA|GF GB (3edc (3BAG|F=F ^FA (3dcB (3AGF|E_E =Ed (3cBA (3GFE|(3DEF (3GAB A2 FA|
GF GB (3edc (3BAG|F=F ^FA (3dcB (3AGF|Ed cB (3ABA (3GFE|(3DFA (3dAF D2:|

